apps/block_scout_web/assets/static/images/network-selector-icons/ethereum-classic.svg

<svg height="30" width="30" xmlns="http://www.w3.org/2000/svg"><g fill-rule="evenodd"><path d="m30 15v15h-30v-30h30z" fill="#0c133c"/><path d="m15.437 25h-.874l-6.563-9.783v-.434l6.563-9.783h.874l6.563 9.783v.434zm-.437-2.174 3.937-5.869-3.937 1.956-3.937-1.956zm0-15.652-3.937 5.869 3.937-1.956 3.937 1.956zm0 5.543-4.484 2.283 4.484 2.283 4.484-2.283z" fill="#34fa99"/></g></svg>

<svg xmlns="http://www.w3.org/2000/svg" width="30" height="30">
    <path fill="#0C133C" fill-rule="evenodd" d="M30 15v15H0V0h30v15z"/>
    <path fill="#34FA99" fill-rule="evenodd" d="M15.437 25h-.874L8 15.217v-.434L14.563 5h.874L22 14.783v.434L15.437 25zM15 22.826l3.937-5.869L15 18.913l-3.937-1.956L15 22.826zm0-15.652l-3.937 5.869L15 11.087l3.937 1.956L15 7.174zm0 5.543L10.516 15 15 17.283 19.484 15 15 12.717z"/>
</svg>
